X:1
T: The Tenpenny Bit
C:
R:Jig
Q:128
K:Am
M:6/8
L:1/16
e2|:e2A2A2 e2A2A2|B2A2B2 G2B2d2|e2A2A2 e2A2A2|d2e2^f2 g2f2g2|
e2A2A2 e2A2A2|B2A2B2 G2B2d2|e2d2B2 g2B2B2|1B2A2A2 A4e2:|2B2A2A2 A4B2|
|:A4a2 a2g2a2|b2g2e2 g2^f2g2|e4a2 a2g2a2|b2g2e2 g6|
e4a2 a2g2a2|a2g2e2 g2^f2g2|e2d2B2 g2B2B2|1B2A2A2 A4B2:|2B2A2A2 A4||
